!!!OTL: Bayiqiyi
!!!ARE: Asia, China,ÿJiangxi Nanchang
!! IV, 215
!!!SCT: C1796
!!!YEM: Copyright 1995, estate of Helmut Schaffrath.
**kern
*ICvox
*Ivox
*M4/4
*k[f#]
*G:
{8dd
8dd
8b
8g
2a}
=1
{8g
8a
8g
8e
2d}
=2
{8d
8e
8d
8r
8dd
8a
8dd
8r}
=3
{8a
16dd
16dd
8a
16dd
16dd
4.a
8g
=4
8e
8d
8e
8g
2d}
=5
{8dd
8b
8a
8r
8dd
8b
8a
8r
=6
8e
8d
8g
8a
2e}
=7
{8b
8dd
8ee
8r
8dd
8b
8a
8a
=8
8e
8d
8e
8g
4a
8r
8a
=9
8g
8a
8g
8e
2d}
=10
{8g
8e
8d
8r
8g
8e
8d
16r
16d
=11
8.e
16d
8e
8g
2d}
==
!!!AGN: Xiaodiao
!!!AMT: simple quadruple
!!!AIN: vox
!!!EED: Helmut Schaffrath
!!!EEV: 1.0
*-
